X: 38605
T: Stonemason's, The
R: jig
M: 6/8
K: Dmajor
|:DFA d2 A|Bc/d/B AFD|GAB ABd|cde gfe|
DFA d2 A|Bc/d/B AFD|GFE FED|E3 D2A:|
|:Add f3|dfa afd|g3 fed|cde gfe|
Add f3|dfa afd|f2a agf|gfe d2A:|

